svgs/thin/whiskey-glass-ice.svg

<svg xmlns="http://www.w3.org/2000/svg" viewBox="0 0 512 512"><!--! Font Awesome Pro 6.0.0-alpha3 by @fontawesome - https://fontawesome.com License - https://fontawesome.com/license (Commercial License) --><path d="M348.3 249.1c-15.62-15.62-41.06-15.62-56.69 0L246.4 294.5c-15.59 15.59-15.59 40.97 0 56.56l45.25 45.38c7.812 7.812 18.06 11.72 28.34 11.72c10.25 0 20.53-3.906 28.34-11.72l45.25-45.38c15.59-15.59 15.59-40.97 0-56.56L348.3 249.1zM382.3 339.7l-45.25 45.38c-9.375 9.375-24.69 9.375-34.06 0l-45.25-45.38c-9.344-9.344-9.344-24.59 0-33.94l45.25-45.38c4.688-4.688 10.88-7.031 17.03-7.031s12.34 2.344 17.03 7.031l45.25 45.38C391.6 315.1 391.6 330.4 382.3 339.7zM159.9 216h64c13.22 0 24 10.78 24 24v8c0 4.406 3.594 8 8 8s8-3.594 8-8V240c0-22.06-17.94-40-40-40h-64c-22.06 0-40 17.94-40 40v64c0 22.06 17.94 40 40 40h48.06c4.406 0 8-3.594 8-8s-3.594-8-8-8H159.9c-13.22 0-23.96-10.74-23.96-23.96L135.9 240C135.9 226.8 146.7 216 159.9 216zM452.5 64H59.47C42.76 64 30.01 78.79 32.26 95.29l47.99 305.7C84.11 427.1 107.2 448 134.7 448h243.1c27.21 0 50.46-20.04 54.31-47.05l47.67-305.7C481.1 78.79 469.2 64 452.5 64zM435.1 272h-11.99c-4.418 0-8 3.582-8 8s3.582 8 8 8h9.496l-17.26 110.7C413.5 417.7 396.1 432 377.8 432H134.7c-19.28 0-35.87-14.32-38.61-33.53L78.71 288h9.291c4.418 0 8-3.582 8-8s-3.582-8-8-8H76.2L48.11 93.13C47.49 88.57 49.57 85.39 50.87 83.91C52.14 82.45 54.95 80 59.47 80h393.1c4.514 0 7.326 2.449 8.602 3.91c1.295 1.484 3.377 4.656 2.799 8.918L435.1 272z"/></svg>

<svg xmlns="http://www.w3.org/2000/svg" viewBox="0 0 512 512"><!-- Font Awesome Pro 6.0.0-alpha2 by @fontawesome - https://fontawesome.com License - https://fontawesome.com/license (Commercial License) --><path d="M348.344 249.094C332.719 233.469 307.281 233.469 291.656 249.094L246.406 294.469C230.813 310.062 230.813 335.437 246.406 351.031L291.656 396.406C299.469 404.219 309.719 408.125 320 408.125C330.25 408.125 340.531 404.219 348.344 396.406L393.594 351.031C409.188 335.437 409.188 310.062 393.594 294.469L348.344 249.094ZM382.281 339.719L337.031 385.094C327.656 394.469 312.344 394.469 302.969 385.094L257.719 339.719C248.375 330.375 248.375 315.125 257.719 305.781L302.969 260.406C307.656 255.719 313.844 253.375 320 253.375S332.344 255.719 337.031 260.406L382.281 305.781C391.625 315.125 391.625 330.375 382.281 339.719ZM159.938 216H223.938C237.156 216 247.938 226.781 247.938 240V248C247.938 252.406 251.531 256 255.938 256S263.938 252.406 263.938 248V240C263.938 217.938 246 200 223.938 200H159.938C137.875 200 119.938 217.938 119.938 240V304C119.938 326.062 137.875 344 159.938 344H208C212.406 344 216 340.406 216 336S212.406 328 208 328H159.938C146.719 328 135.938 317.219 135.938 304V240C135.938 226.781 146.719 216 159.938 216ZM452.533 64H59.467C42.756 64 30.008 78.789 32.258 95.293L80.248 400.949C84.106 427.957 107.242 448 134.666 448H377.762C404.971 448 428.217 427.957 432.074 400.949L479.742 95.293C481.992 78.789 469.244 64 452.533 64ZM435.992 272H424C419.582 272 416 275.582 416 280S419.582 288 424 288H433.496L416.235 398.688C413.522 417.68 396.983 432 377.762 432H134.666C115.385 432 98.801 417.68 96.055 398.469L78.709 288H88C92.418 288 96 284.418 96 280S92.418 272 88 272H76.197L48.112 93.133C47.488 88.566 49.571 85.395 50.865 83.91C52.141 82.449 54.953 80 59.467 80H452.533C457.047 80 459.86 82.449 461.135 83.91C462.43 85.395 464.512 88.566 463.934 92.828L435.992 272Z"/></svg>
